X:32
M:C
L:1/8
K:C
(c3 d/c/) (B2A2):|
|:A3B e4|A4 ^G2E2|A3 B e3g|(c3 d/c/) [G2B2] z2|A3 B e4|A4 ^G2E2|
e3 ^d e2 ^G2|A3 (3^G/A/B/ A4:|

